static/img/kroki/e22e70101af8ece4b9aca88b10780093.svg

<?xml version="1.0" encoding="us-ascii" standalone="no"?><svg xmlns="http://www.w3.org/2000/svg" xmlns:xlink="http://www.w3.org/1999/xlink" contentStyleType="text/css" height="252px" preserveAspectRatio="none" style="width:272px;height:252px;" version="1.1" viewBox="0 0 272 252" width="272px" zoomAndPan="magnify"><defs/><g><!--class gcp_instance--><g id="elem_gcp_instance"><rect codeLine="22" fill="#3D176E" height="39.7891" id="gcp_instance" rx="2.5" ry="2.5" style="stroke:#000D19;stroke-width:0.5;" width="149" x="7" y="206.58"/><ellipse cx="22" cy="226.4745" fill="#ADD1B2" rx="11" ry="11" style="stroke:#181818;stroke-width:1.0;"/><path d="M24.9688,232.1152 Q24.3906,232.412 23.75,232.5527 Q23.1094,232.7089 22.4063,232.7089 Q19.9063,232.7089 18.5781,231.0683 Q17.2656,229.412 17.2656,226.287 Q17.2656,223.162 18.5781,221.5058 Q19.9063,219.8495 22.4063,219.8495 Q23.1094,219.8495 23.75,220.0058 Q24.4063,220.162 24.9688,220.4589 L24.9688,223.1777 Q24.3438,222.5995 23.75,222.3339 Q23.1563,222.0527 22.5313,222.0527 Q21.1875,222.0527 20.5,223.1308 Q19.8125,224.1933 19.8125,226.287 Q19.8125,228.3808 20.5,229.4589 Q21.1875,230.5214 22.5313,230.5214 Q23.1563,230.5214 23.75,230.2558 Q24.3438,229.9745 24.9688,229.3964 L24.9688,232.1152 Z " fill="#000000"/><text fill="#D9B8FF" font-family="Helvetica" font-size="17" lengthAdjust="spacing" textLength="107" x="41" y="232.3598">gcp_instance</text></g><!--class gcp_network--><g id="elem_gcp_network"><rect codeLine="24" fill="#3D176E" height="39.7891" id="gcp_network" rx="2.5" ry="2.5" style="stroke:#000D19;stroke-width:0.5;" width="149" x="7" y="7"/><ellipse cx="22" cy="26.8945" fill="#ADD1B2" rx="11" ry="11" style="stroke:#181818;stroke-width:1.0;"/><path d="M24.9688,32.5352 Q24.3906,32.832 23.75,32.9727 Q23.1094,33.1289 22.4063,33.1289 Q19.9063,33.1289 18.5781,31.4883 Q17.2656,29.832 17.2656,26.707 Q17.2656,23.582 18.5781,21.9258 Q19.9063,20.2695 22.4063,20.2695 Q23.1094,20.2695 23.75,20.4258 Q24.4063,20.582 24.9688,20.8789 L24.9688,23.5977 Q24.3438,23.0195 23.75,22.7539 Q23.1563,22.4727 22.5313,22.4727 Q21.1875,22.4727 20.5,23.5508 Q19.8125,24.6133 19.8125,26.707 Q19.8125,28.8008 20.5,29.8789 Q21.1875,30.9414 22.5313,30.9414 Q23.1563,30.9414 23.75,30.6758 Q24.3438,30.3945 24.9688,29.8164 L24.9688,32.5352 Z " fill="#000000"/><text fill="#D9B8FF" font-family="Helvetica" font-size="17" lengthAdjust="spacing" textLength="107" x="41" y="32.7798">gcp_network</text></g><!--class gcp_target_instance--><g id="elem_gcp_target_instance"><rect codeLine="26" fill="#3D176E" height="39.7891" id="gcp_target_instance" rx="2.5" ry="2.5" style="stroke:#000D19;stroke-width:0.5;" width="209" x="56" y="106.79"/><ellipse cx="71" cy="126.6845" fill="#ADD1B2" rx="11" ry="11" style="stroke:#181818;stroke-width:1.0;"/><path d="M73.9688,132.3252 Q73.3906,132.622 72.75,132.7627 Q72.1094,132.9189 71.4063,132.9189 Q68.9063,132.9189 67.5781,131.2783 Q66.2656,129.622 66.2656,126.497 Q66.2656,123.372 67.5781,121.7158 Q68.9063,120.0595 71.4063,120.0595 Q72.1094,120.0595 72.75,120.2158 Q73.4063,120.372 73.9688,120.6689 L73.9688,123.3877 Q73.3438,122.8095 72.75,122.5439 Q72.1563,122.2627 71.5313,122.2627 Q70.1875,122.2627 69.5,123.3408 Q68.8125,124.4033 68.8125,126.497 Q68.8125,128.5908 69.5,129.6689 Q70.1875,130.7314 71.5313,130.7314 Q72.1563,130.7314 72.75,130.4658 Q73.3438,130.1845 73.9688,129.6064 L73.9688,132.3252 Z " fill="#000000"/><text fill="#D9B8FF" font-family="Helvetica" font-size="17" lengthAdjust="spacing" textLength="167" x="90" y="132.5698">gcp_target_instance</text></g><!--link gcp_network to gcp_instance--><g id="link_gcp_network_gcp_instance"><path codeLine="28" d="M67.41,47.17 C57.14,62.47 44.09,84.87 38.5,106.79 C34.13,123.93 34.13,129.44 38.5,146.58 C43.52,166.27 54.56,186.35 64.2,201.33 " fill="none" id="gcp_network-to-gcp_instance" style="stroke:#1A83AF;stroke-width:2.0;"/><polygon fill="#1A83AF" points="67.41,205.2,65.7844,195.4862,64.653,201.0288,59.1104,199.8974,67.41,205.2" style="stroke:#1A83AF;stroke-width:2.0;"/></g><!--link gcp_network to gcp_target_instance--><g id="link_gcp_network_gcp_target_instance"><path codeLine="29" d="M97.11,47.22 C109.77,62.89 127.67,85.05 141.23,101.83 " fill="none" id="gcp_network-to-gcp_target_instance" style="stroke:#1A83AF;stroke-width:2.0;"/><polygon fill="#1A83AF" points="144.92,105.41,142.3702,95.8969,141.7757,101.5224,136.1501,100.9279,144.92,105.41" style="stroke:#1A83AF;stroke-width:2.0;"/></g><!--link gcp_target_instance to gcp_instance--><g id="link_gcp_target_instance_gcp_instance"><path codeLine="30" d="M144.89,147.01 C132.23,162.68 114.33,184.84 100.77,201.62 " fill="none" id="gcp_target_instance-to-gcp_instance" style="stroke:#1A83AF;stroke-width:2.0;"/><polygon fill="#1A83AF" points="97.08,205.2,105.8499,200.7179,100.2243,201.3124,99.6298,195.6869,97.08,205.2" style="stroke:#1A83AF;stroke-width:2.0;"/></g><!--SRC=[XP11IyD048Nl_HKBFHSIYwQz26cXwAM8zIOYa-nikYJP3RDJGnN_kzQgR3TDUdtls_VUx5PB55Wtl1SrrXcI6xbIcmO8Qf4IsNPfAqjYh1IeQHAQAslu8h266iKTLc_8EeUGUDhgl3JedBZoh0NaPK5sP-GndWcC-xRGi4SjAt0kPIQTxHYzCNAUpPGAoJ1qF9LnSeCTp994-aMYA9BnF4GkLWtU_Kziz3kAsF-qjMNipEnK_523Am-4Dx9pw9_Vk_41fDIc4DUUzdZSH0RfHDziGThsG2ked5_Z60ajxnjSTgx2-Kogv2nytmVdXvyJHTwyQkCOJ8xYO_JfoGQvjLG6AWCLoATlV7hoF8xJsJHTlKnkJzA7gI1sTAwgD_eB]--></g></svg>

<svg xmlns="http://www.w3.org/2000/svg" width="272" height="252" preserveAspectRatio="none" style="width:272px;height:252px"><rect width="149" height="39.789" x="7" y="206.58" fill="#3D176E" rx="2.5" ry="2.5" style="stroke:#000d19;stroke-width:.5"/><circle cx="22" cy="226.475" r="11" fill="#ADD1B2" style="stroke:#181818;stroke-width:1"/><path d="M24.969 232.115q-.578.297-1.219.438-.64.156-1.344.156-2.5 0-3.828-1.64-1.312-1.657-1.312-4.782t1.312-4.781q1.328-1.656 3.828-1.656.703 0 1.344.156.656.156 1.219.453v2.719q-.625-.578-1.219-.844-.594-.281-1.219-.281-1.343 0-2.031 1.078-.688 1.062-.688 3.156 0 2.094.688 3.172.688 1.062 2.031 1.062.625 0 1.219-.265.594-.281 1.219-.86v2.72Z"/><text x="41" y="232.36" fill="#D9B8FF" font-family="Helvetica" font-size="17" textLength="107">gcp_instance</text><rect width="149" height="39.789" x="7" y="7" fill="#3D176E" rx="2.5" ry="2.5" style="stroke:#000d19;stroke-width:.5"/><circle cx="22" cy="26.895" r="11" fill="#ADD1B2" style="stroke:#181818;stroke-width:1"/><path d="M24.969 32.535q-.578.297-1.219.438-.64.156-1.344.156-2.5 0-3.828-1.64-1.312-1.657-1.312-4.782t1.312-4.781q1.328-1.656 3.828-1.656.703 0 1.344.156.656.156 1.219.453v2.719q-.625-.578-1.219-.844-.594-.281-1.219-.281-1.343 0-2.031 1.078-.688 1.062-.688 3.156 0 2.094.688 3.172.688 1.062 2.031 1.062.625 0 1.219-.265.594-.281 1.219-.86v2.72Z"/><text x="41" y="32.78" fill="#D9B8FF" font-family="Helvetica" font-size="17" textLength="107">gcp_network</text><rect width="209" height="39.789" x="56" y="106.79" fill="#3D176E" rx="2.5" ry="2.5" style="stroke:#000d19;stroke-width:.5"/><circle cx="71" cy="126.684" r="11" fill="#ADD1B2" style="stroke:#181818;stroke-width:1"/><path d="M73.969 132.325q-.578.297-1.219.438-.64.156-1.344.156-2.5 0-3.828-1.64-1.312-1.657-1.312-4.782t1.312-4.781q1.328-1.656 3.828-1.656.703 0 1.344.156.656.156 1.219.453v2.719q-.625-.579-1.219-.844-.594-.281-1.219-.281-1.344 0-2.031 1.078-.688 1.062-.688 3.156 0 2.094.688 3.172.688 1.062 2.031 1.062.625 0 1.219-.265.594-.281 1.219-.86v2.72Z"/><text x="90" y="132.57" fill="#D9B8FF" font-family="Helvetica" font-size="17" textLength="167">gcp_target_instance</text><path fill="none" d="M67.41 47.17c-10.27 15.3-23.32 37.7-28.91 59.62-4.37 17.14-4.37 22.65 0 39.79 5.02 19.69 16.06 39.77 25.7 54.75" style="stroke:#1a83af;stroke-width:2"/><path fill="#1A83AF" d="m67.41 205.2-1.626-9.714-1.131 5.543-5.543-1.132 8.3 5.303z" style="stroke:#1a83af;stroke-width:2"/><path fill="none" d="M97.11 47.22c12.66 15.67 30.56 37.83 44.12 54.61" style="stroke:#1a83af;stroke-width:2"/><path fill="#1A83AF" d="m144.92 105.41-2.55-9.513-.594 5.625-5.626-.594 8.77 4.482z" style="stroke:#1a83af;stroke-width:2"/><path fill="none" d="M144.89 147.01c-12.66 15.67-30.56 37.83-44.12 54.61" style="stroke:#1a83af;stroke-width:2"/><path fill="#1A83AF" d="m97.08 205.2 8.77-4.482-5.626.594-.594-5.625-2.55 9.513z" style="stroke:#1a83af;stroke-width:2"/></svg>
